images/50878978.svg

<?xml version="1.0" encoding="UTF-8"?>
<svg xmlns="http://www.w3.org/2000/svg" xmlns:xlink="http://www.w3.org/1999/xlink" width="300pt" height="300pt" viewBox="0 0 300 300" version="1.1">
<defs>
<g>
<symbol overflow="visible" id="glyph0-0">
<path style="stroke:none;" d="M 0.453125 1.59375 L 0.453125 -6.34375 L 4.953125 -6.34375 L 4.953125 1.59375 Z M 0.953125 1.09375 L 4.453125 1.09375 L 4.453125 -5.84375 L 0.953125 -5.84375 Z M 0.953125 1.09375 "/>
</symbol>
<symbol overflow="visible" id="glyph0-1">
<path style="stroke:none;" d="M 3.546875 -5.953125 C 2.898438 -5.953125 2.382812 -5.710938 2 -5.234375 C 1.625 -4.753906 1.4375 -4.101562 1.4375 -3.28125 C 1.4375 -2.445312 1.625 -1.789062 2 -1.3125 C 2.382812 -0.832031 2.898438 -0.59375 3.546875 -0.59375 C 4.191406 -0.59375 4.703125 -0.832031 5.078125 -1.3125 C 5.453125 -1.789062 5.640625 -2.445312 5.640625 -3.28125 C 5.640625 -4.101562 5.453125 -4.753906 5.078125 -5.234375 C 4.703125 -5.710938 4.191406 -5.953125 3.546875 -5.953125 Z M 3.546875 -6.6875 C 4.460938 -6.6875 5.195312 -6.375 5.75 -5.75 C 6.300781 -5.132812 6.578125 -4.3125 6.578125 -3.28125 C 6.578125 -2.238281 6.300781 -1.410156 5.75 -0.796875 C 5.195312 -0.179688 4.460938 0.125 3.546875 0.125 C 2.617188 0.125 1.878906 -0.179688 1.328125 -0.796875 C 0.773438 -1.410156 0.5 -2.238281 0.5 -3.28125 C 0.5 -4.3125 0.773438 -5.132812 1.328125 -5.75 C 1.878906 -6.375 2.617188 -6.6875 3.546875 -6.6875 Z M 3.546875 -6.6875 "/>
</symbol>
<symbol overflow="visible" id="glyph0-2">
<path style="stroke:none;" d="M 0.890625 -6.5625 L 2.078125 -6.5625 L 4.984375 -1.078125 L 4.984375 -6.5625 L 5.84375 -6.5625 L 5.84375 0 L 4.65625 0 L 1.75 -5.484375 L 1.75 0 L 0.890625 0 Z M 0.890625 -6.5625 "/>
</symbol>
<symbol overflow="visible" id="glyph0-3">
<path style="stroke:none;" d="M 0.890625 -6.5625 L 1.765625 -6.5625 L 1.765625 -3.875 L 5 -3.875 L 5 -6.5625 L 5.890625 -6.5625 L 5.890625 0 L 5 0 L 5 -3.125 L 1.765625 -3.125 L 1.765625 0 L 0.890625 0 Z M 0.890625 -6.5625 "/>
</symbol>
</g>
</defs>
<g id="surface13813">
<rect x="0" y="0" width="300" height="300" style="fill:rgb(100%,100%,100%);fill-opacity:1;stroke:none;"/>
<path style="fill:none;stroke-width:1.2;stroke-linecap:butt;stroke-linejoin:miter;stroke:rgb(100%,0%,0%);stroke-opacity:1;stroke-miterlimit:10;" d="M 73.308594 176.339844 L 77.164062 165.097656 "/>
<path style="fill:none;stroke-width:1.2;stroke-linecap:butt;stroke-linejoin:miter;stroke:rgb(0%,0%,0%);stroke-opacity:1;stroke-miterlimit:10;" d="M 77.164062 165.097656 L 81.023438 153.851562 "/>
<path style="fill:none;stroke-width:1.2;stroke-linecap:butt;stroke-linejoin:miter;stroke:rgb(0%,0%,0%);stroke-opacity:1;stroke-miterlimit:10;" d="M 49.535156 175.957031 L 61.421875 176.148438 "/>
<path style="fill:none;stroke-width:1.2;stroke-linecap:butt;stroke-linejoin:miter;stroke:rgb(100%,0%,0%);stroke-opacity:1;stroke-miterlimit:10;" d="M 61.421875 176.148438 L 73.308594 176.339844 "/>
<path style=" stroke:none;fill-rule:nonzero;fill:rgb(100%,100%,100%);fill-opacity:1;" d="M 69.308594 170.839844 L 77.308594 170.839844 L 77.308594 181.839844 L 69.308594 181.839844 Z M 69.308594 170.839844 "/>
<g style="fill:rgb(100%,0%,0%);fill-opacity:1;">
  <use xlink:href="#glyph0-1" x="69.308594" y="179.50293"/>
</g>
<path style="fill:none;stroke-width:1.2;stroke-linecap:butt;stroke-linejoin:miter;stroke:rgb(0%,0%,0%);stroke-opacity:1;stroke-miterlimit:10;" d="M 81.023438 153.851562 L 71.519531 146.707031 "/>
<path style="fill:none;stroke-width:1.2;stroke-linecap:butt;stroke-linejoin:miter;stroke:rgb(0%,0%,100%);stroke-opacity:1;stroke-miterlimit:10;" d="M 71.519531 146.707031 L 62.015625 139.566406 "/>
<path style="fill:none;stroke-width:1.2;stroke-linecap:butt;stroke-linejoin:miter;stroke:rgb(0%,0%,0%);stroke-opacity:1;stroke-miterlimit:10;" d="M 75.761719 156.894531 L 68.15625 151.179688 "/>
<path style="fill:none;stroke-width:1.2;stroke-linecap:butt;stroke-linejoin:miter;stroke:rgb(0%,0%,100%);stroke-opacity:1;stroke-miterlimit:10;" d="M 68.15625 151.179688 L 60.554688 145.464844 "/>
<path style="fill:none;stroke-width:1.2;stroke-linecap:butt;stroke-linejoin:miter;stroke:rgb(0%,0%,0%);stroke-opacity:1;stroke-miterlimit:10;" d="M 81.023438 153.851562 L 103.75 146.871094 "/>
<path style="fill:none;stroke-width:1.2;stroke-linecap:butt;stroke-linejoin:miter;stroke:rgb(0%,0%,100%);stroke-opacity:1;stroke-miterlimit:10;" d="M 62.015625 139.566406 L 42.554688 153.226562 "/>
<path style=" stroke:none;fill-rule:nonzero;fill:rgb(100%,100%,100%);fill-opacity:1;" d="M 59.015625 134.066406 L 66.015625 134.066406 L 66.015625 145.066406 L 59.015625 145.066406 Z M 59.015625 134.066406 "/>
<g style="fill:rgb(0%,0%,100%);fill-opacity:1;">
  <use xlink:href="#glyph0-2" x="59.015625" y="142.729492"/>
</g>
<path style="fill:none;stroke-width:1.2;stroke-linecap:butt;stroke-linejoin:miter;stroke:rgb(0%,0%,100%);stroke-opacity:1;stroke-miterlimit:10;" d="M 42.554688 153.226562 L 46.046875 164.589844 "/>
<path style="fill:none;stroke-width:1.2;stroke-linecap:butt;stroke-linejoin:miter;stroke:rgb(0%,0%,0%);stroke-opacity:1;stroke-miterlimit:10;" d="M 46.046875 164.589844 L 49.535156 175.957031 "/>
<path style="fill:none;stroke-width:1.2;stroke-linecap:butt;stroke-linejoin:miter;stroke:rgb(0%,0%,100%);stroke-opacity:1;stroke-miterlimit:10;" d="M 48.601562 153.859375 L 51.394531 162.949219 "/>
<path style="fill:none;stroke-width:1.2;stroke-linecap:butt;stroke-linejoin:miter;stroke:rgb(0%,0%,0%);stroke-opacity:1;stroke-miterlimit:10;" d="M 51.394531 162.949219 L 54.1875 172.039062 "/>
<path style=" stroke:none;fill-rule:nonzero;fill:rgb(100%,100%,100%);fill-opacity:1;" d="M 39.554688 147.726562 L 46.554688 147.726562 L 46.554688 158.726562 L 39.554688 158.726562 Z M 39.554688 147.726562 "/>
<g style="fill:rgb(0%,0%,100%);fill-opacity:1;">
  <use xlink:href="#glyph0-2" x="39.554688" y="156.389648"/>
</g>
<path style="fill:none;stroke-width:1.2;stroke-linecap:butt;stroke-linejoin:miter;stroke:rgb(0%,0%,0%);stroke-opacity:1;stroke-miterlimit:10;" d="M 49.535156 175.957031 L 35.25 194.960938 "/>
<path style="fill:none;stroke-width:1.2;stroke-linecap:butt;stroke-linejoin:miter;stroke:rgb(0%,0%,0%);stroke-opacity:1;stroke-miterlimit:10;" d="M 103.75 146.871094 L 121.160156 163.066406 "/>
<path style="fill:none;stroke-width:1.2;stroke-linecap:butt;stroke-linejoin:miter;stroke:rgb(0%,0%,0%);stroke-opacity:1;stroke-miterlimit:10;" d="M 109.300781 144.394531 L 123.230469 157.347656 "/>
<path style="fill:none;stroke-width:1.2;stroke-linecap:butt;stroke-linejoin:miter;stroke:rgb(0%,0%,0%);stroke-opacity:1;stroke-miterlimit:10;" d="M 109.070312 123.695312 L 103.75 146.871094 "/>
<path style="fill:none;stroke-width:1.2;stroke-linecap:butt;stroke-linejoin:miter;stroke:rgb(0%,0%,0%);stroke-opacity:1;stroke-miterlimit:10;" d="M 121.160156 163.066406 L 143.890625 156.085938 "/>
<path style="fill:none;stroke-width:1.2;stroke-linecap:butt;stroke-linejoin:miter;stroke:rgb(0%,0%,0%);stroke-opacity:1;stroke-miterlimit:10;" d="M 143.890625 156.085938 L 161.300781 172.277344 "/>
<path style="fill:none;stroke-width:1.2;stroke-linecap:butt;stroke-linejoin:miter;stroke:rgb(0%,0%,0%);stroke-opacity:1;stroke-miterlimit:10;" d="M 143.890625 156.085938 L 149.210938 132.910156 "/>
<path style="fill:none;stroke-width:1.2;stroke-linecap:butt;stroke-linejoin:miter;stroke:rgb(0%,0%,0%);stroke-opacity:1;stroke-miterlimit:10;" d="M 138.96875 152.515625 L 143.226562 133.976562 "/>
<path style="fill:none;stroke-width:1.2;stroke-linecap:butt;stroke-linejoin:miter;stroke:rgb(0%,0%,0%);stroke-opacity:1;stroke-miterlimit:10;" d="M 149.210938 132.910156 L 131.800781 116.71875 "/>
<path style="fill:none;stroke-width:1.2;stroke-linecap:butt;stroke-linejoin:miter;stroke:rgb(0%,0%,0%);stroke-opacity:1;stroke-miterlimit:10;" d="M 149.210938 132.910156 L 171.9375 125.929688 "/>
<path style="fill:none;stroke-width:1.2;stroke-linecap:butt;stroke-linejoin:miter;stroke:rgb(0%,0%,0%);stroke-opacity:1;stroke-miterlimit:10;" d="M 131.800781 116.71875 L 109.070312 123.695312 "/>
<path style="fill:none;stroke-width:1.2;stroke-linecap:butt;stroke-linejoin:miter;stroke:rgb(0%,0%,0%);stroke-opacity:1;stroke-miterlimit:10;" d="M 131.167969 122.761719 L 112.988281 128.347656 "/>
<path style="fill:none;stroke-width:1.2;stroke-linecap:butt;stroke-linejoin:miter;stroke:rgb(0%,0%,0%);stroke-opacity:1;stroke-miterlimit:10;" d="M 171.9375 125.929688 L 189.347656 142.125 "/>
<path style="fill:none;stroke-width:1.2;stroke-linecap:butt;stroke-linejoin:miter;stroke:rgb(0%,0%,0%);stroke-opacity:1;stroke-miterlimit:10;" d="M 177.488281 123.453125 L 191.417969 136.410156 "/>
<path style="fill:none;stroke-width:1.2;stroke-linecap:butt;stroke-linejoin:miter;stroke:rgb(0%,0%,0%);stroke-opacity:1;stroke-miterlimit:10;" d="M 177.257812 102.757812 L 171.9375 125.929688 "/>
<path style="fill:none;stroke-width:1.2;stroke-linecap:butt;stroke-linejoin:miter;stroke:rgb(0%,0%,0%);stroke-opacity:1;stroke-miterlimit:10;" d="M 189.347656 142.125 L 212.078125 135.144531 "/>
<path style="fill:none;stroke-width:1.2;stroke-linecap:butt;stroke-linejoin:miter;stroke:rgb(0%,0%,0%);stroke-opacity:1;stroke-miterlimit:10;" d="M 212.078125 135.144531 L 217.398438 111.972656 "/>
<path style="fill:none;stroke-width:1.2;stroke-linecap:butt;stroke-linejoin:miter;stroke:rgb(0%,0%,0%);stroke-opacity:1;stroke-miterlimit:10;" d="M 207.15625 131.578125 L 211.414062 113.039062 "/>
<path style="fill:none;stroke-width:1.2;stroke-linecap:butt;stroke-linejoin:miter;stroke:rgb(0%,0%,0%);stroke-opacity:1;stroke-miterlimit:10;" d="M 212.078125 135.144531 L 229.488281 151.339844 "/>
<path style="fill:none;stroke-width:1.2;stroke-linecap:butt;stroke-linejoin:miter;stroke:rgb(0%,0%,0%);stroke-opacity:1;stroke-miterlimit:10;" d="M 217.398438 111.972656 L 199.988281 95.777344 "/>
<path style="fill:none;stroke-width:1.2;stroke-linecap:butt;stroke-linejoin:miter;stroke:rgb(0%,0%,0%);stroke-opacity:1;stroke-miterlimit:10;" d="M 199.988281 95.777344 L 177.257812 102.757812 "/>
<path style="fill:none;stroke-width:1.2;stroke-linecap:butt;stroke-linejoin:miter;stroke:rgb(0%,0%,0%);stroke-opacity:1;stroke-miterlimit:10;" d="M 199.355469 101.824219 L 181.175781 107.40625 "/>
<path style="fill:none;stroke-width:1.2;stroke-linecap:butt;stroke-linejoin:miter;stroke:rgb(0%,0%,0%);stroke-opacity:1;stroke-miterlimit:10;" d="M 177.257812 102.757812 L 159.847656 86.5625 "/>
<path style="fill:none;stroke-width:1.2;stroke-linecap:butt;stroke-linejoin:miter;stroke:rgb(0%,0%,0%);stroke-opacity:1;stroke-miterlimit:10;" d="M 230.308594 154.011719 L 241.671875 150.523438 "/>
<path style="fill:none;stroke-width:1.2;stroke-linecap:butt;stroke-linejoin:miter;stroke:rgb(100%,0%,0%);stroke-opacity:1;stroke-miterlimit:10;" d="M 241.671875 150.523438 L 253.035156 147.035156 "/>
<path style="fill:none;stroke-width:1.2;stroke-linecap:butt;stroke-linejoin:miter;stroke:rgb(0%,0%,0%);stroke-opacity:1;stroke-miterlimit:10;" d="M 228.664062 148.664062 L 240.03125 145.175781 "/>
<path style="fill:none;stroke-width:1.2;stroke-linecap:butt;stroke-linejoin:miter;stroke:rgb(100%,0%,0%);stroke-opacity:1;stroke-miterlimit:10;" d="M 240.03125 145.175781 L 251.394531 141.6875 "/>
<path style="fill:none;stroke-width:1.2;stroke-linecap:butt;stroke-linejoin:miter;stroke:rgb(0%,0%,0%);stroke-opacity:1;stroke-miterlimit:10;" d="M 229.488281 151.339844 L 226.828125 162.925781 "/>
<path style="fill:none;stroke-width:1.2;stroke-linecap:butt;stroke-linejoin:miter;stroke:rgb(0%,0%,100%);stroke-opacity:1;stroke-miterlimit:10;" d="M 226.828125 162.925781 L 224.167969 174.511719 "/>
<path style=" stroke:none;fill-rule:nonzero;fill:rgb(100%,100%,100%);fill-opacity:1;" d="M 248.214844 138.859375 L 256.214844 138.859375 L 256.214844 149.859375 L 248.214844 149.859375 Z M 248.214844 138.859375 "/>
<g style="fill:rgb(100%,0%,0%);fill-opacity:1;">
  <use xlink:href="#glyph0-1" x="248.214844" y="147.522461"/>
</g>
<path style="fill:none;stroke-width:1.2;stroke-linecap:butt;stroke-linejoin:miter;stroke:rgb(0%,0%,100%);stroke-opacity:1;stroke-miterlimit:10;" d="M 224.167969 174.511719 L 232.871094 182.609375 "/>
<path style="fill:none;stroke-width:1.2;stroke-linecap:butt;stroke-linejoin:miter;stroke:rgb(0%,0%,0%);stroke-opacity:1;stroke-miterlimit:10;" d="M 232.871094 182.609375 L 241.574219 190.707031 "/>
<path style=" stroke:none;fill-rule:nonzero;fill:rgb(100%,100%,100%);fill-opacity:1;" d="M 217.167969 169.011719 L 231.167969 169.011719 L 231.167969 180.011719 L 217.167969 180.011719 Z M 217.167969 169.011719 "/>
<g style="fill:rgb(0%,0%,100%);fill-opacity:1;">
  <use xlink:href="#glyph0-2" x="217.167969" y="177.674805"/>
  <use xlink:href="#glyph0-3" x="224.145508" y="177.674805"/>
</g>
<path style="fill:none;stroke-width:1.2;stroke-linecap:butt;stroke-linejoin:miter;stroke:rgb(0%,0%,0%);stroke-opacity:1;stroke-miterlimit:10;" d="M 241.574219 190.707031 L 264.75 196.027344 "/>
<path style="fill:none;stroke-width:1.2;stroke-linecap:butt;stroke-linejoin:miter;stroke:rgb(0%,0%,0%);stroke-opacity:1;stroke-miterlimit:10;" d="M 248.554688 213.4375 L 241.574219 190.707031 "/>
<path style="fill:none;stroke-width:1.2;stroke-linecap:butt;stroke-linejoin:miter;stroke:rgb(0%,0%,0%);stroke-opacity:1;stroke-miterlimit:10;" d="M 264.75 196.027344 L 248.554688 213.4375 "/>
</g>
</svg>

<svg xmlns="http://www.w3.org/2000/svg" xmlns:xlink="http://www.w3.org/1999/xlink" width="300pt" height="300pt" viewBox="0 0 300 300"><defs><symbol overflow="visible"><path d="M.453 1.594v-7.938h4.5v7.938zm.5-.5h3.5v-6.938h-3.5zm0 0"/></symbol><symbol overflow="visible" id="a"><path d="M3.547-5.953c-.65 0-1.164.242-1.547.72-.375.48-.563 1.13-.563 1.952 0 .835.188 1.49.563 1.967.383.48.898.72 1.547.72.644 0 1.156-.24 1.53-.72.376-.476.564-1.132.564-1.968 0-.822-.187-1.474-.562-1.954-.375-.477-.887-.72-1.53-.72zm0-.734c.914 0 1.648.312 2.203.937.55.617.828 1.438.828 2.47 0 1.042-.277 1.87-.828 2.483-.555.617-1.29.922-2.203.922-.93 0-1.668-.305-2.22-.922C.774-1.41.5-2.237.5-3.28c0-1.033.273-1.853.828-2.47.55-.625 1.29-.938 2.22-.938zm0 0"/></symbol><symbol overflow="visible" id="b"><path d="M.89-6.563H2.08l2.906 5.485v-5.484h.86V0H4.656L1.75-5.484V0H.89zm0 0"/></symbol><symbol overflow="visible" id="c"><path d="M.89-6.563h.876v2.688H5v-2.688h.89V0H5v-3.125H1.766V0H.89zm0 0"/></symbol></defs><g><path fill="#fff" d="M0 0h300v300H0z"/><path d="M73.31 176.34l3.854-11.242" stroke-width="1.2" stroke="#f00" stroke-miterlimit="10" fill="none"/><path d="M77.164 165.098l3.86-11.246M49.535 175.957l11.887.19" stroke-width="1.2" stroke="#000" stroke-miterlimit="10" fill="none"/><path d="M61.422 176.148l11.887.192" stroke-width="1.2" stroke="#f00" stroke-miterlimit="10" fill="none"/><path d="M69.31 170.84h8v11h-8zm0 0" fill="#fff"/><use xlink:href="#a" x="69.309" y="179.503" fill="#f00"/><path d="M81.023 153.852l-9.503-7.145" stroke-width="1.2" stroke="#000" stroke-miterlimit="10" fill="none"/><path d="M71.52 146.707l-9.504-7.14" stroke-width="1.2" stroke="#00f" stroke-miterlimit="10" fill="none"/><path d="M75.762 156.895l-7.606-5.715" stroke-width="1.2" stroke="#000" stroke-miterlimit="10" fill="none"/><path d="M68.156 151.18l-7.6-5.715" stroke-width="1.2" stroke="#00f" stroke-miterlimit="10" fill="none"/><path d="M81.023 153.852l22.727-6.98" stroke-width="1.2" stroke="#000" stroke-miterlimit="10" fill="none"/><path d="M62.016 139.566l-19.46 13.66" stroke-width="1.2" stroke="#00f" stroke-miterlimit="10" fill="none"/><path d="M59.016 134.066h7v11h-7zm0 0" fill="#fff"/><use xlink:href="#b" x="59.016" y="142.729" fill="#00f"/><path d="M42.555 153.227l3.492 11.363" stroke-width="1.2" stroke="#00f" stroke-miterlimit="10" fill="none"/><path d="M46.047 164.59l3.488 11.367" stroke-width="1.2" stroke="#000" stroke-miterlimit="10" fill="none"/><path d="M48.602 153.86l2.793 9.09" stroke-width="1.2" stroke="#00f" stroke-miterlimit="10" fill="none"/><path d="M51.395 162.95l2.792 9.09" stroke-width="1.2" stroke="#000" stroke-miterlimit="10" fill="none"/><path d="M39.555 147.727h7v11h-7zm0 0" fill="#fff"/><use xlink:href="#b" x="39.555" y="156.39" fill="#00f"/><path d="M49.535 175.957L35.25 194.96M103.75 146.87l17.41 16.196M109.3 144.395l13.93 12.953M109.07 123.695l-5.32 23.176M121.16 163.066l22.73-6.98M143.89 156.086l17.41 16.19M143.89 156.086l5.32-23.176M138.97 152.516l4.257-18.54M149.21 132.91l-17.41-16.19M149.21 132.91l22.727-6.98M131.8 116.72l-22.73 6.975M131.168 122.762l-18.18 5.586M171.938 125.93l17.41 16.195M177.488 123.453l13.93 12.957M177.258 102.758l-5.32 23.172M189.348 142.125l22.73-6.98M212.078 135.145l5.32-23.172M207.156 131.578l4.258-18.54M212.078 135.145l17.41 16.195M217.398 111.973l-17.41-16.196M199.988 95.777l-22.73 6.98M199.355 101.824l-18.18 5.582M177.258 102.758l-17.41-16.195M230.31 154.012l11.362-3.49" stroke-width="1.2" stroke="#000" stroke-miterlimit="10" fill="none"/><path d="M241.672 150.523l11.363-3.488" stroke-width="1.2" stroke="#f00" stroke-miterlimit="10" fill="none"/><path d="M228.664 148.664l11.367-3.488" stroke-width="1.2" stroke="#000" stroke-miterlimit="10" fill="none"/><path d="M240.03 145.176l11.365-3.488" stroke-width="1.2" stroke="#f00" stroke-miterlimit="10" fill="none"/><path d="M229.488 151.34l-2.66 11.586" stroke-width="1.2" stroke="#000" stroke-miterlimit="10" fill="none"/><path d="M226.828 162.926l-2.66 11.586" stroke-width="1.2" stroke="#00f" stroke-miterlimit="10" fill="none"/><path d="M248.215 138.86h8v11h-8zm0 0" fill="#fff"/><use xlink:href="#a" x="248.215" y="147.522" fill="#f00"/><path d="M224.168 174.512l8.703 8.097" stroke-width="1.2" stroke="#00f" stroke-miterlimit="10" fill="none"/><path d="M232.87 182.61l8.704 8.097" stroke-width="1.2" stroke="#000" stroke-miterlimit="10" fill="none"/><path d="M217.168 169.012h14v11h-14zm0 0" fill="#fff"/><g fill="#00f"><use xlink:href="#b" x="217.168" y="177.675"/><use xlink:href="#c" x="224.146" y="177.675"/></g><path d="M241.574 190.707l23.176 5.32M248.555 213.438l-6.98-22.73M264.75 196.027l-16.195 17.41" stroke-width="1.2" stroke="#000" stroke-miterlimit="10" fill="none"/></g></svg>
